@extra/phlat-icons/symbolic-24/preferences-desktop-wallpaper.svg

<?xml version="1.0" encoding="UTF-8" standalone="no"?>
<svg
   xmlns:dc="http://purl.org/dc/elements/1.1/"
   xmlns:cc="http://creativecommons.org/ns#"
   xmlns:rdf="http://www.w3.org/1999/02/22-rdf-syntax-ns#"
   xmlns:svg="http://www.w3.org/2000/svg"
   xmlns="http://www.w3.org/2000/svg"
   id="svg45"
   version="1.1"
	 viewBox="-4 -4 24 24"

>
  <metadata
     id="metadata49">
    <rdf:RDF>
      <cc:Work
         rdf:about="">
        <dc:format>image/svg+xml</dc:format>
        <dc:type
           rdf:resource="http://purl.org/dc/dcmitype/StillImage" />
        <dc:title></dc:title>
      </cc:Work>
    </rdf:RDF>
  </metadata>
  <defs
     id="defs17" />
  <path
     style="opacity:0.96499999;fill:#f1f2f2"
     id="path19"
     d="m 5,11 v 3 H 4 c -1,0 -1,0 -1,1 0,1 0,1 1.0103692,1 H 12 c 1,0 1,0 1,-1 0,-1 0,-1 -1,-1 h -1 v -3 z" />
  <path
     id="rect23"
     d="M 0.80078125,1 C 0.35758124,1 0,1.3575812 0,1.8007812 V 12.199219 C 0,12.642419 0.35758124,13 0.80078125,13 H 15.199219 C 15.642419,13 16,12.642419 16,12.199219 V 1.8007812 C 16,1.3575812 15.642419,1 15.199219,1 Z M 2,3 h 12 v 7 H 2 Z"
     style="fill:#f1f2f2" />
  <path
     id="rect4682"
     d="M 7,4 V 8 H 3 V 8.5 C 3,8.777 3.223,9 3.5,9 h 9 C 12.777,9 13,8.777 13,8.5 v -4 C 13,4.223 12.777,4 12.5,4 Z"
     style="opacity:0.4;fill:#f1f2f2;fill-opacity:1;stroke:none;stroke-width:2;stroke-miterlimit:4;stroke-dasharray:none;stroke-opacity:1" />
  <path
     id="path4698"
     d="M 3,7 H 6 V 4 Z"
     style="fill:#f1f2f2;stroke:none;stroke-width:1px;stroke-linecap:butt;stroke-linejoin:miter;stroke-opacity:1" />
</svg>

<svg xmlns="http://www.w3.org/2000/svg" viewBox="0 0 16 16">
    <path d="M5 11v3H4c-1 0-1 0-1 1s0 1 1.01 1H12c1 0 1 0 1-1s0-1-1-1h-1v-3z" opacity=".965" fill="#f1f2f2"/>
    <path d="M.8 1a.8.8 0 0 0-.8.8v10.4a.8.8 0 0 0 .8.8h14.4a.8.8 0 0 0 .8-.8V1.8a.8.8 0 0 0-.8-.8zM2 3h12v7H2z" fill="#f1f2f2"/>
    <path d="M7 4v4H3v.5c0 .277.223.5.5.5h9c.277 0 .5-.223.5-.5v-4c0-.277-.223-.5-.5-.5z" opacity=".4" fill="#f1f2f2"/>
    <path d="M3 7h3V4z" fill="#f1f2f2"/>
</svg>
